assets/icon-focus.svg

<?xml version="1.0" encoding="UTF-8"?>
<!DOCTYPE svg PUBLIC "-//W3C//DTD SVG 1.1//EN" "http://www.w3.org/Graphics/SVG/1.1/DTD/svg11.dtd">
<!-- Creator: CorelDRAW 2017 -->
<svg xmlns="http://www.w3.org/2000/svg" xml:space="preserve" width="100%" height="100%" version="1.1" style="shape-rendering:geometricPrecision; text-rendering:geometricPrecision; image-rendering:optimizeQuality; fill-rule:evenodd; clip-rule:evenodd"
viewBox="0 0 1.36995 1.50598"
 xmlns:xlink="http://www.w3.org/1999/xlink">
 <defs>
  <style type="text/css">
   <![CDATA[
    .str0 {stroke:#FE4F32;stroke-width:0.03659;stroke-linecap:round;stroke-linejoin:round;stroke-miterlimit:22.9256}
    .fil0 {fill:none}
    .fil1 {fill:#FE4F32}
   ]]>
  </style>
 </defs>
 <g id="Camada_x0020_1">
  <metadata id="CorelCorpID_0Corel-Layer"/>
  <g id="_1949684466336">
   <path class="fil0 str0" d="M0.44837 1.48768l0 -0.2331 -0.22894 -0.01665c-0.04819,-0.00351 -0.09157,-0.06406 -0.09157,-0.11239l0 -0.21229 -0.07076 0c-0.03227,0 -0.04925,-0.05047 -0.03189,-0.07768l0.14427 -0.22619c0,-0.32644 0.26464,-0.59108 0.59108,-0.59108 0.32645,0 0.59109,0.26464 0.59109,0.59108 0,0.14789 -0.05329,0.29241 -0.15537,0.39941 -0.06142,0.06439 -0.08972,0.13682 -0.0737,0.20889l0.05843 0.26294m-0.53354 -0.58327c-0.02036,-0.0077 -0.03971,-0.01746 -0.05779,-0.02905l-0.04908 0.05639 -0.06917 -0.06021 0.04912 -0.05642c-0.01507,-0.01762 -0.02819,-0.03695 -0.03908,-0.05764l-0.07058 0.02464 -0.03023 -0.08657 0.07058 -0.02464c-0.00359,-0.01894 -0.00549,-0.03849 -0.00549,-0.05847 0,-0.00368 0.00009,-0.00733 0.00022,-0.01097l-0.07357 -0.01359 0.01665 -0.09017 0.07348 0.01357c0.00761,-0.02222 0.01767,-0.04331 0.02983,-0.06295l-0.05713 -0.04824 0.05916 -0.07006 0.05716 0.04826c0.0174,-0.01534 0.03651,-0.02878 0.05703,-0.03997l-0.0257 -0.07018 0.0861 -0.03154 0.0257 0.07018c0.00846,-0.00174 0.01705,-0.00313 0.02575,-0.00417m0.15118 0.01919c0.01909,0.00748 0.03726,0.01679 0.0543,0.02771l0.04909 -0.05639 0.06916 0.06021 -0.04912 0.05642c0.01507,0.01763 0.0282,0.03695 0.03909,0.05764l0.07057 -0.02464 0.03023 0.08657 -0.07058 0.02465c0.00359,0.01894 0.00549,0.03848 0.00549,0.05847 0,0.00367 -0.00009,0.00732 -0.00021,0.01097l0.07357 0.01358 -0.01666 0.09017 -0.07347 -0.01357c-0.00762,0.02223 -0.01767,0.04331 -0.02984,0.06295l0.05713 0.04824 -0.05916 0.07006 -0.05716 -0.04826c-0.0174,0.01534 -0.03652,0.02878 -0.05703,0.03997l0.0257 0.07018 -0.0861 0.03154 -0.0257 -0.07018c-0.00837,0.00172 -0.01686,0.0031 -0.02546,0.00414"/>
   <path class="fil1" d="M0.72817 0.67233l-0.14851 0 0.27754 -0.54536 -0.06816 0.40415 0.15094 0 -0.27268 0.53562 0.06087 -0.39441zm0.0021 0.19918l0.15677 -0.30794 -0.13639 0 0.03927 -0.23284 -0.15733 0.30914 0.13343 0 -0.03575 0.23164z"/>
  </g>
 </g>
</svg>

<svg xmlns="http://www.w3.org/2000/svg" width="100%" height="100%" fill-rule="evenodd" clip-rule="evenodd" image-rendering="optimizeQuality" shape-rendering="geometricPrecision" text-rendering="geometricPrecision" version="1.1" viewBox="0 0 1.37 1.506" xml:space="preserve">
  <path fill="none" stroke="#fe4f32" stroke-linecap="round" stroke-linejoin="round" stroke-miterlimit="22.926" stroke-width=".037" d="M.448 1.488v-.233L.22 1.238c-.048-.004-.091-.064-.091-.112V.913h-.07C.024.913.007.863.024.836L.17.609a.591.591 0 1 1 1.027.4c-.061.064-.09.137-.073.209l.058.263M.647.897A.31.31 0 0 1 .59.868L.54.925.472.865l.05-.057A.313.313 0 0 1 .48.75l-.07.025L.38.688.45.664a.314.314 0 0 1-.005-.07L.372.581.39.49l.074.013a.311.311 0 0 1 .03-.063L.434.393l.06-.07.057.048a.313.313 0 0 1 .057-.04L.583.261.669.23.695.3A.311.311 0 0 1 .72.296m.152.019a.31.31 0 0 1 .054.027L.975.286l.07.06-.05.057a.313.313 0 0 1 .04.057l.07-.024.03.086-.07.025a.314.314 0 0 1 .005.07l.073.013-.016.09-.074-.013a.31.31 0 0 1-.03.062l.057.049-.059.07L.964.84a.313.313 0 0 1-.057.04l.026.07L.847.98.82.911a.313.313 0 0 1-.026.004"/>
  <path fill="#fe4f32" d="M.728.672H.58L.857.127.79.531H.94l-.273.536.061-.395zm.002.2L.887.564H.751L.79.33.633.64h.133L.73.872z"/>
</svg>
